X:1
T:TEST: Scales in 3 notations
M:C
K:C
L: 1/4
%
| "C,"C,"D,"D,"E,"E,"F,"F, "G,"G,"A,"A,"B,"B,"C"C \
| "D"D"E"E"F"F"G"G "A"A"B"B"c"c"d"d \
| "e"e"f"f"g"g"a"a "b"b"c'"c'"d'"d'"e'"e' |
%
| "c,,"c,,"c,,"c,,"e,,"e,,"f,,"f,, "g,,"g,,"a,,"a,,"b,,"b,,"c,"c, \
| "d,"d,"e,"e,"f,"f,"g,"g, "a,"a,"b,"b,"c"c"d"d \
| "e"e"f"f"g"g"a"a "b"b"c'"c'"d'"d'"e'"e' |
%
| "C,"C,"D,"D,"E,"E,"F,"F, "G,"G,"A,"A,"B,"B,"C"C \
| "D"D"E"E"F"F"G"G "A"A"B"B"C'"C'"D'"D' \
| "E'"E'"F'"F'"G'"G'"A'"A' "B'"B'"C''"C''"D''"D''"E''"E'' |
